public/youtgrey.svg

<svg fill="none" height="32" viewBox="0 0 33 32" width="33" xmlns="http://www.w3.org/2000/svg"><path d="m29.2 22.6c-.2667 1.4-1.4 2.4667-2.8 2.6667-2.2.3333-5.8667.7333-10 .7333-4.0667 0-7.73332-.4-9.99999-.7333-1.4-.2-2.53333-1.2667-2.8-2.6667-.26666-1.5333-.53333-3.8-.53333-6.6s.26667-5.0667.53333-6.6c.26667-1.4 1.4-2.46667 2.8-2.66667 2.2-.33333 5.86669-.73333 9.99999-.73333s7.7333.4 10 .73333c1.4.2 2.5333 1.26667 2.8 2.66667.2667 1.5333.6 3.8.6 6.6-.0667 2.8-.3333 5.0667-.6 6.6z" fill="#949494"/><path d="m13.7334 20.6667v-9.3334l8 4.6667z" fill="#fff"/></svg>

<svg width="33" height="32" viewBox="0 0 33 32" fill="none" xmlns="http://www.w3.org/2000/svg">
<path d="M29.2 22.6C28.9333 24 27.8 25.0667 26.4 25.2667C24.2 25.6 20.5333 26 16.4 26C12.3333 26 8.66668 25.6 6.40001 25.2667C5.00001 25.0667 3.86668 24 3.60001 22.6C3.33335 21.0667 3.06668 18.8 3.06668 16C3.06668 13.2 3.33335 10.9333 3.60001 9.4C3.86668 8 5.00001 6.93333 6.40001 6.73333C8.60001 6.4 12.2667 6 16.4 6C20.5333 6 24.1333 6.4 26.4 6.73333C27.8 6.93333 28.9333 8 29.2 9.4C29.4667 10.9333 29.8 13.2 29.8 16C29.7333 18.8 29.4667 21.0667 29.2 22.6Z" fill="#949494"/>
<path d="M13.7334 20.6667V11.3333L21.7334 16L13.7334 20.6667Z" fill="white"/>
</svg>
